X: 15
T: Seanamhac Tube Station
C: John Carty
Z: leprecawn
S: https://thesession.org/tunes/280#setting51803
R: jig
M: 6/8
L: 1/8
K: Gdor
||:GFD D2 F|GAc d2 e|dcA cAF|GFD CDF|
GFD D2 F|GAc d2e|dcA cAF|1 G3 G2 A:|2 G3 GAc||
d2 d dcA|c2c cAc |dcA cAF|GFD CAc|
dcd dcA|c2 c gfd|dcA cAF|G3 GAc||
d2d dcA|c2c cAc|dcA cAF|GFD CDF|
GFD D2 F |GAc d2e|dcA cAF|G3 G2 A ||
d2g gag| f2 g agf |gfd c2d | cAG FGA|
d2g gag | f2 g agf|gfd AcF | G3GAc||
d2 g gag f2 g gag|gfd Acd |cAG FGA|
GFD D2 F|GAc dce|d2e dcA|cAF G3 G2 A||

